X: 149
T:Rothbury Hills
M:4/4
L:1/8
Q:1/4=48
Z:bil@blueskiesink.com
K:G % transposed from F
% Time signature=3/4  MIDI-clocks/click=24  32nd-notes/24-MIDI-clocks=8
V:1
%fl
%%MIDI program 4 73
z8|dg&gt;fg d&gt;B GA-|A/2B/2A F2 DG2B/2&gt;c/2|d2 gf&gt;af d3/2z/2|
Bc3/2e/2c B3/2A/2 GE-|E/2c/2B A2 B/2&gt;c/2d3/2B/2G|A2
d/2-[d/2F/2]G4-G/2z/2|de&gt;ce g&gt;f ed-|
d/2D/2G B2 d/2&gt;^c/2c&gt;Bc|D2 E/2&gt;F/2G2B/2-[c/2B/2] d3/2z/2|dg&gt;fg d3/2B/2
GA-|A/2B/2A F2 DE3/2c/2A|
d3/2c/2 AG4-G/2z/2|dg&gt;fg d&gt;B GA-|A/2B/2A F2 DG2B/2&gt;c/2|d2 gf&gt;af d3/2z/2|
Bc3/2e/2c B&gt;A GE-|E/2c/2B A2 B/2&gt;c/2d&gt;BG|A2 d/2F/2G4-G/2z/2|de&gt;ce g&gt;f ed
-|
d/2D/2G B2 d/2&gt;^c/2c3/2B/2c|D2 E/2&gt;F/2G2B/2&gt;c/2 d3/2z/2|dg&gt;fg d3/2B/2
GA-|A/2B/2A F2 DE&gt;cA|
d&gt;f ag4-g-|g2
V:2
%oboe
%%MIDI program 5 68
z8|d/2c&lt;BA/2B B&gt;G Bc-|cc d2 cB DG/2&gt;A/2|BG Bc Ac BA|
G/2F/2E2F G&gt;A Bc-|c(3e2f2e2d2B|cg f/2e/2d2c B3/2z/2|(3B2c2c2 e3/2d/2 cB-
|
B/2z/2B G&gt;A BA3/2G/2A|d2 cB2G/2&gt;A/2 B3/2z/2|cB3/2A/2B B&gt;G Bc-|cc d3/2z/2
dc2E|
FA cB4z|d/2c&lt;BA/2B B&gt;G Bc-|cc d2 cB DG/2&gt;A/2|BG Bc Ac BA|
G/2F/2E2F G&gt;A Bc-|c(3e2f2e2d2B|cg f/2e/2d2c B3/2z/2|Bc2c e3/2d/2 cB-|
B/2z/2B G&gt;A BA3/2G/2A|d2 cB2G/2-[A/2G/2] B3/2z/2|cB&gt;AB B&gt;G Bc-|cc d2 dc2
E|
FA c/2z/2c&gt;dc2B-|B2- B/2
V:3
%cl
%%MIDI program 6 71
z8|B/2A/2G d/2c/2d GD GE|AG A&gt;B cd2e/2&gt;f/2|g2 dd cD GF|
E/2D/2G2A G&gt;F EA|EG AD/2z/2 G/2&gt;A/2B GD|F/2A/2c/2e/2 d/2c/2B2A
G3/2z/2|G/2z/2G E/2G/2A/2B/2 cA DG-|
GG D&gt;F GE3/2D/2E|Fc AG Dd g3/2z/2|fd&gt;cd GD GE|AG A3/2G/2 FA gA/2z/2|
AF AG3/2D/2d G3/2z/2|B/2A/2G d/2c/2d GD GE|AG A&gt;B cd2e/2&gt;f/2|g2 d/2z/2d
cD
GF|
E/2D/2G2A G3/2F/2 EA|EG AD/2z/2 G/2-[A/2G/2]B GD|F/2A/2c/2e/2 d/2c/2B2A
G3/2z/2|G/2z/2G E/2G/2A/2B/2 cA DG-|
GG D&gt;F GE&gt;DE|Fc AG Dd g3/2z/2|fd3/2c/2d GD GE|AG A3/2G/2 FA gG|
AF DE2-[A/2-E/2]A3/2G-|G2- G/2
V:4
%drone
%%MIDI program 7 48
z3[D4-G,4-][D-G,-]|[D8-G,8-]|[D8-G,8-]|[D8-G,8-]|
[D8-G,8-]|[D8-G,8-]|[D8-G,8-]|[D8-G,8-]|
[D8-G,8-]|[D8-G,8-]|[D8-G,8-]|[D8-G,8-]|
[D8-G,8-]|[D8-G,8-]|[D8-G,8-]|[D8-G,8-]|
[D8-G,8-]|[D8-G,8-]|[D8-G,8-]|[D8-G,8-]|
[D8-G,8-]|[D8-G,8-]|[D8-G,8-]|[D8-G,8-]|
[D8-G,8-]|[D4-G,4-] [D3/2G,3/2]
%vol
%pan
%tempo

